symbols/web/video_stable/materialsymbolsoutlined/video_stable_wght200grad200fill1_40px.svg

<svg xmlns="http://www.w3.org/2000/svg" height="40" width="40"><path d="m26.917 28.375 3.166-12.125-16.875-4.625L10 23.667Zm-14.334-6.208 2.125-7.917ZM7.417 32.333q-1.292 0-2.209-.916-.916-.917-.916-2.25V10.833q0-1.333.916-2.25.917-.916 2.209-.916h25.166q1.292 0 2.209.916.916.917.916 2.25v18.334q0 1.333-.916 2.25-.917.916-2.209.916Z"/></svg>

<svg xmlns="http://www.w3.org/2000/svg" height="40" width="40"><path d="M26.917 28.375 30.083 16.25 13.208 11.625 10 23.667ZM12.583 22.167 14.708 14.25ZM7.417 32.333Q6.125 32.333 5.208 31.417Q4.292 30.5 4.292 29.167V10.833Q4.292 9.5 5.208 8.583Q6.125 7.667 7.417 7.667H32.583Q33.875 7.667 34.792 8.583Q35.708 9.5 35.708 10.833V29.167Q35.708 30.5 34.792 31.417Q33.875 32.333 32.583 32.333Z"/></svg>
